X:27
T:New Harmony Country Dance,aka. RDO.27
T:Country Dance. RDO.27
M:4/4
L:1/8
Q:1/2=90
S:Robert D. Owen MS,Indiana,1826.
R:.Reel
N:My title. Titled only “Country Dance” in MS.
O:Indiana,USA
A:New Harmony
Z:vmp.Chris Partington
K:Bb
f|edcB B2df|gfdf gabf|(ed)cBB3d|cAFA cdef|!
edcBB2df|gfdf gfga|b2bf edcB|Afcf dfcf|!
B2 df bfdf|bfdf bfdB|F2 Ac fg=eg|fg=eg fcAF|!
B2df bfdf|bfdf bfdB|e2d2c2B2|FGAB cd”DC”ef|]

